X: 22
T: Cotillon XXII.     l' Espagnol.
%R: reel, march
B: J. Longman "XXIV New Cotillons or French Dances", London 1770 #22
F: http://http://www.vwml.org/browse/browse-collections-dance-tune-books/browse-longmans 2015-2-22
Z: 2015 John Chambers <jc:trillian.mit.edu>
M: 2/4
L: 1/16
K: G
% - - - - - - - - - - - - - - - - - - - - - - - - - - - - -
%Voice 1 is formatted for a small scale.
V: 1 clef=treble
|:\
d2d2 d4 | (eg)(fa) g2d2 | e2e2 e4 | (ag)(fe) {e}d4 |\
d2d2 d4 | (eg)(fa) g2e2 | (d2c2)(B2A2) | G2G2 G4 :|\
|:\
(g2f2)(e2^d2) | (eg)(fa) g2e2 | (g2f2)(e2d2) | (d4 ^c4) |
(f2e2)(d2^c2) | (Bd)(ce) d2g2 | (f2e2)(d2^c2) | B2B2 B4 |\
d2d2 d4 | (eg)(fa) g2d2 | e2e2 e4 | (ag)(fe) {e}d4 |\
d2d2 d4 | (eg)(fa) g2e2 | (d2c2)(B2A2) | G2G2 G4 :|
% - - - - - - - - - - - - - - - - - - - - - - - - - - - - -
%Voice 2 preserves the original staff breaks.
V: 2 clef=bass middle=d
|:\
g2g2 g4 | g2g2 g4 | g2g2 g4 | g2g2 g4 |\
g2g2 g4 | g2g2g2c'2 | d'4 d4 | g2g2 g4 :|
|:\
z4 b4 | e'2b2 e4 | z4 g4 | a4 A4 |\
^a4 f4 | b2f2 B2e2 | f4 F4 | B2B2 B4 |
g2g2 g4 | g2g2 g4 | g2g2 g4 | g2g2 g4 |\
g2g2 g4 | g2g2g2c'2 | d'4 d4 | g2g2 g4 :|
% - - - - - - - - - - Dance description - - - - - - - - - -
%%begintext align
%%    All round: all four Couple take their Partners by their hands and by turning go
%% all round to their own Places: all four Couple by crossing change Places: by Chasse\`e and
%% Rigadoon Step return to their Places.
%%endtext
%%text See the title page for the set of 9 "changes" for this dance.

%%sep 1 1 500
%%sep 1 1 500
